!!!COM: Mozart, Wolfgang Amadeus
!!!CDT: 1756/01/27/-1791/12/05/
!!!CNT: German
!!!OTL: Piano Sonata No. 9 in D major
!!!SCT1: K<sup>1</sup> 311
!!!SCT2: K<sup>6</sup> 284c
!!!OMV: Mvmt. 1
!!!OMD: Allegro con spirito
!!!ODT: 1777///
**kern	**kern	**dynam
*staff2	*staff1	*staff1/2
*>[A,A,B]	*>[A,A,B]	*>[A,A,B]
*>norep[A,B]	*>norep[A,B]	*>norep[A,B]
*>A	*>A	*>A
*clefF4	*clefG2	*clefG2
*k[f#c#]	*k[f#c#]	*k[f#c#]
*D:	*D:	*D:
*M4/4	*M4/4	*M4/4
*met(c)	*met(c)	*met(c)
*MM132	*MM132	*MM132
=1-	=1-	=1-
4DD/ 4AA/ 4D/	4f#/ 4a/ 4dd/	f
4r	4r	.
*clefG2	*	*
4d/ 4f#/	(16gg\LL	.
.	16ff#\	.
.	16ee\	.
.	16ff#\JJ	.
4e/ 4g/	16aa\LL	.
.	16gg\	.
.	16ff#\	.
.	16gg\JJ	.
=2	=2	=2
4f#/ 4a/	4aa\)	.
4r	4r	.
2r	8aa'\L	.
.	8bb'\	.
.	8ccc#'\	.
.	8ddd'\J	.
*clefF4	*	*
=3	=3	=3
(8F#\L	(4aa\	.
8d\	.	.
8D\	4ff#\)	.
8d\J	.	.
8E\L	16aa\LL	.
.	16gg\	.
8d\	16ff#\	.
.	16gg\JJ	.
8A\	8aa\L	.
8c#\J)	8gg\J	.
=4	=4	=4
.	(32ee#Q/	.
4D\ 4d\	4ff#\)	.
4r	4r	.
*clefG2	*	*
4d/ 4f#/	(16gg\LL	.
.	16ff#\	.
.	16een\	.
.	16ff#\JJ	.
4e/ 4g/	16aa\LL	.
.	16gg\	.
.	16ff#\	.
.	16gg\JJ	.
=5	=5	=5
4f#/ 4a/	4aa\)	.
4r	4r	.
2r	8aa'\L	.
.	8bb'\	.
.	8ccc#'\	.
.	8ddd'\J	.
*clefF4	*	*
=6	=6	=6
8F#\L	4aa\	.
8d\	.	.
8D\	4ff#\	.
8d\J	.	.
8E\L	(16aa\LL	.
.	16gg\	.
8d\	16ff#\	.
.	16gg\JJ	.
8A\	16aa\LL	.
.	16gg\	.
8c#\J	16ff#\	.
.	16ee\JJ	.
*clefG2	*	*
=7	=7	=7
8d'/L	8dd\)	.
8f#'/	8r	.
8d'/	8a/	p
8f#'/J	8r	.
8d'/L	(4.ff#\	.
8f#'/	.	.
8d'/	.	.
8f#'/J	16ee\LL	.
.	16dd\JJ	.
=8	=8	=8
8e'/L	8cc#\)	.
8g'/	8r	.
8e'/	8a/	.
8g'/J	8r	.
(16e/LL	8ee\	.
16f#/	.	.
16g/	8r	.
16f#/JJ	.	.
16e/LL	4r	.
16d/	.	.
16c#/	.	.
16B/JJ)	.	.
*clefF4	*	*
=9	=9	=9
8A'\L	8ee\	.
8c#'\	8r	.
8A'\	8a/	.
8c#'\J	8r	.
8A'\L	(4.gg\	.
8c#'\	.	.
8G'\	.	.
8c#'\J	16ff#\LL	.
.	16ee\JJ	.
=10	=10	=10
8F#'\L	8dd\)	.
8d'\	8r	.
8F#'\	8a/	.
8d'\J	8r	.
(16F#\LL	8ff#\	.
16D\	.	.
16E\	8r	.
16F#\JJ	.	.
16G\LL	4r	.
16A\	.	.
16B\	.	.
16c#\JJ	.	.
=11	=11	=11
4d\)	16ff#\LL	f
.	16dd\	.
.	16ee\	.
.	16ff#\JJ	.
4r	16gg\LL	.
.	16aa\	.
.	16bb\	.
.	16ccc#\JJ	.
8r	16ddd\LL	.
.	16ccc#\	.
8F#\ 8A\L	16bb\	.
.	16aa\JJ	.
8F#\ 8A\	16gg\LL	.
.	16ff#\	.
8F#\ 8A\J	16ee\	.
.	16dd\JJ	.
=12	=12	=12
4G\ 4B\	16ee\LL	.
.	16ff#\	.
.	16ee\	.
.	16dd#\JJ	.
4r	16ee\LL	.
.	16ff#\	.
.	16gg\	.
.	16aa\JJ	.
8r	16bb\LL	.
.	16aa\	.
8G\ 8B\L	16gg\	.
.	16ff#\JJ	.
8G\ 8B\	16ee\LL	.
.	16ddn\	.
8G#\ 8B\J	16cc#\	.
.	16b\JJ	.
=13	=13	=13
8A\L	16cc#\LL	.
.	16dd\	.
8Gn\	16cc#\	.
.	16a\JJ	.
8F#\	8dd\	.
8D\J	8r	.
8C#/L	16gg\LL	.
.	16aa\	.
8AA/	16gg\	.
.	16ee\JJ	.
8D/	16gg\LL	.
.	16ff#\	.
8F#/J	16ee\	.
.	16dd\JJ	.
=14	=14	=14
8A\L	16cc#\LL	.
.	16dd\	.
8G\	16cc#\	.
.	16a\JJ	.
8F#\	8dd\	.
8D\J	8r	.
8C#/L	16gg\LL	.
.	16aa\	.
8AA/	16gg\	.
.	16ee\JJ	.
8D/	16gg\LL	.
.	16ff#\	.
8F#/J	16ee\	.
.	16dd\JJ	.
=15	=15	=15
4AA\ 4E\ 4A\	16cc#\LL	.
.	16ee\	.
.	16cc#\	.
.	16a\JJ	.
4D\ 4F#\ 4A\	16ff#\LL	.
.	16aa\	.
.	16ff#\	.
.	16dd\JJ	.
4AA\ 4E\ 4A\	16cc#\LL	.
.	16ee\	.
.	16cc#\	.
.	16a\JJ	.
4D\ 4F#\ 4A\	16ff#\LL	.
.	16aa\	.
.	16ff#\	.
.	16dd\JJ	.
=16	=16	=16
8r	8cc#\ 8ee\L	.
8AA\ 8C#\ 8E\ 8A\L	8cc#\ 8ee\ 8aa\	.
8AA\ 8C#\ 8E\ 8A\	8cc#\ 8ee\ 8aa\	.
8AA\ 8C#\ 8E\ 8A\J	8cc#\ 8ee\ 8aa\J	.
4AA\ 4C#\ 4E\ 4A\	4cc#\ 4ee\ 4aa\	.
.	32ddQ/	.
4r	(16cc#\LL	p
.	16b\	.
.	16cc#\	.
.	16dd\JJ)	.
=17	=17	=17
(8A\L	(8dd#\L	.
8c#\	8ee\J)	.
8B\	8r	.
8d\J	8ee\	.
8c#\L	(8aa\L	.
8e\	8gg#\	.
8A\	8ff#\	.
8c#\J	8ee\J)	.
=18	=18	=18
8B\L	(8cc#\L	.
8f#\	8ddn\J)	.
8d\	8r	.
8B\J	8dd\	.
8G#\L	(8ee\L	.
8B\	8dd\	.
8E\	8cc#\)	.
8d\J	8b\J	.
=19	=19	=19
8c#\L	(8g#/L	.
8e\	8a/J)	.
8G#\	8r	.
8e\J	8b\	.
8A\L	(8b#\L	.
8e\	8cc#\J)	.
8F#\	8r	.
8A\J	(16ee\LL	.
.	16dd\JJ	.
=20	=20	=20
*^	*	*
2r	8E\L	4.cc#\	.
.	8A\	.	.
.	8c#\	.	.
.	8A\J)	16dd\LL	.
.	.	16cc#\JJ	.
4G#/	4E\	8bn\L)	.
.	.	8cc#'\	.
4r	4r	8dd'\	.
.	.	8dd#'\J	.
*v	*v	*	*
=21	=21	=21
(8A\L	(8dd#\L	.
8c#\	8ee\J)	.
8B\	8r	.
8d\J	8ee\	.
8c#\L	8aa'\L	.
8e\	8gg#'\	.
8A\	8ff#'\	.
8c#\J	8ee'\J	.
=22	=22	=22
8B\L	(8cc#\L	.
8f#\	8ddn\J)	.
8d\	8r	.
8B\J	8dd\	.
8G#\L	8ee'\L	.
8B\	8dd'\	.
8E\	8cc#'\	.
8G#\J	8b'\J	.
=23	=23	=23
*^	*	*
2r	4A\)	(8.cc#/L	.
.	.	16a/Jk)	.
*clefF4	*clefF4	*	*
.	4D\ 4d\	(8.f#/L	.
.	.	16b/Jk)	.
4c#/	2E\	4a/	.
4B/	.	4g#/	.
*v	*v	*	*
=24	=24	=24
.	16f#Q/LL	.
.	16g#Q/JJ	.
4A\	16a\LL	f
.	16ee\	.
.	16dd#\	.
.	16ee\JJ	.
*clefG2	*	*
8r	16ff#\LL	.
.	16ee\	.
8a'/	16dd#\	.
.	16ee\JJ	.
8b'/L	16ddn\LL	.
.	16ee\	.
8a'/	16dd\	.
.	16ee\JJ	.
8g#'/	16dd\LL	.
.	16ee\	.
8e'/J	16dd\	.
.	16ee\JJ	.
=25	=25	=25
4a/	16cc#\LL	.
.	16ee\	.
.	16dd#\	.
.	16ee\JJ	.
*clefF4	*	*
8r	16ff#\LL	.
.	16ee\	.
8A'\	16dd#\	.
.	16ee\JJ	.
8B'\L	16ddn\LL	.
.	16ee\	.
8A'\	16dd\	.
.	16ee\JJ	.
8G#'\	16dd\LL	.
.	16ee\	.
8E'\J	16dd\	.
.	16ee\JJ	.
*clefG2	*	*
=26	=26	=26
16A/LL	4cc#\	.
16e/	.	.
16d#/	.	.
16e/JJ	.	.
16f#/LL	8r	.
16e/	.	.
16d#/	8aa'\	.
16e/JJ	.	.
16dn/LL	8bb'\L	.
16e/	.	.
16d/	8aa'\	.
16e/JJ	.	.
16d/LL	8gg#'\	.
16e/	.	.
16d/	8ee'\J	.
16e/JJ	.	.
=27	=27	=27
16c#/LL	4aa\	.
16e/	.	.
16d#/	.	.
16e/JJ	.	.
*	*clefF4	*clefF4
16f#/LL	8r	.
16e/	.	.
16d#/	8AA'/	.
16e/JJ	.	.
16dn/LL	8BB'/L	.
16e/	.	.
16d/	8AA'/	.
16e/JJ	.	.
16d/LL	8GG#'/	.
16e/	.	.
16d/	8EE'/J	.
16e/JJ	.	.
=28	=28	=28
4c#/	4AA/	.
*	*clefG2	*clefG2
16c#/LL	(4ee\	p
16a/	.	.
16c#/	.	.
16a/JJ	.	.
16B/LL	4dd\	.
16a/	.	.
16B/	.	.
16a/JJ	.	.
16A/LL	4cc#\)	.
16a/	.	.
16A/	.	.
16a/JJ	.	.
=29	=29	=29
16d/LL	(8.ff#\L	.
16a/	.	.
16g#/	.	.
16a/JJ	48gg#\LL	.
.	48ff#\	.
.	48ee\JJJ	.
16d/LL	8ff#\L	.
16a/	.	.
16g#/	8gg#\J)	.
16a/JJ	.	.
16d/LL	(8bb\L	.
16a/	.	.
16g#/	8aa\)	.
16a/JJ	.	.
16d/LL	(8gg#\	.
16a/	.	.
16g#/	8ff#\J	.
16a/JJ	.	.
=30	=30	=30
16c#/LL	8ee\)	.
16a/	.	.
16g#/	8r	.
16a/JJ	.	.
16c#/LL	(4ee\	f
16a/	.	.
16c#/	.	.
16a/JJ	.	.
16B/LL	4dd\	.
16a/	.	.
16B/	.	.
16a/JJ	.	.
16A/LL	4cc#\)	.
16a/	.	.
16A/	.	.
16a/JJ	.	.
*clefF4	*	*
=31	=31	=31
16D\LL	(8.b\L	.
16B\	.	.
16F#\	.	.
16B\JJ	16ff#\Jk	.
16D\LL	16ee\LL	.
16B\	16dd\	.
16F#\	16cc#\	.
16B\JJ	16b\JJ)	.
16E\LL	(4a/	.
16c#\	.	.
16A\	.	.
16c#\JJ	.	.
16E\LL	4b/	.
16d\	.	.
16G#\	.	.
16d\JJ	.	.
=32	=32	=32
.	16aQ/LL	.
.	16bQ/JJ	.
16A\LL	8a/)	.
16e\	.	.
16c#\	8r	.
16e\JJ	.	.
*clefG2	*	*
16c#/LL	(4ee\	p
16a/	.	.
16c#/	.	.
16a/JJ	.	.
16B/LL	4dd\	.
16a/	.	.
16B/	.	.
16a/JJ	.	.
16A/LL	4cc#\)	.
16a/	.	.
16A/	.	.
16a/JJ	.	.
=33	=33	=33
16d/LL	(8.ff#\L	.
16a/	.	.
16g#/	.	.
16a/JJ	48gg#\LL	.
.	48ff#\	.
.	48ee\JJJ	.
16d/LL	8ff#\L	.
16a/	.	.
16g#/	8gg#\J)	.
16a/JJ	.	.
16d/LL	(8bb\L	.
16a/	.	.
16g#/	8aa\)	.
16a/JJ	.	.
16d/LL	(8gg#\	.
16a/	.	.
16g#/	8ff#\J	.
16a/JJ	.	.
=34	=34	=34
16c#/LL	8ee\)	.
16a/	.	.
16g#/	8r	.
16a/JJ	.	.
16c#/LL	(4ee\	f
16a/	.	.
16c#/	.	.
16a/JJ	.	.
16B/LL	4dd\	.
16a/	.	.
16B/	.	.
16a/JJ	.	.
16A/LL	4cc#\)	.
16a/	.	.
16A/	.	.
16a/JJ	.	.
*clefF4	*	*
=35	=35	=35
16D\LL	(8.b\L	.
16B\	.	.
16F#\	.	.
16B\JJ	16ff#\Jk)	.
16D\LL	(16ee\LL	.
16B\	16dd\	.
16F#\	16cc#\)	.
16B\JJ	16b\JJ	.
16E\LL	(4a/	.
16c#\	.	.
16A\	.	.
16c#\JJ	.	.
16E\LL	4b/	.
16d\	.	.
16G#\	.	.
16d\JJ	.	.
=36	=36	=36
.	32aQ/LLL	.
.	32bQ/JJJ)	.
4A\ 4c#\	(16a/LL	.
.	16e/	.
.	16a/	.
.	16cc#/JJ	.
8r	16ee\LL	.
.	16cc#\	.
8E\ 8G#\ 8B\	16dd\	.
.	16b\JJ	.
4A\ 4c#\	16a/LL	.
.	16e/	.
.	16a/	.
.	16cc#/JJ	.
8r	16ee\LL	.
.	16cc#\	.
8E\ 8G#\ 8B\	16dd\	.
.	16b\JJ	.
=37	=37	=37
4A\ 4c#\	4a/	.
4E\ 4G#\ 4B\	4b\ 4dd\ 4ee\) 4gg#\	.
4AA\ 4C#\ 4E\ 4A\	4a\ 4cc#\ 4ee\ 4aa\	.
4r	4r	.
=38	=38	=38
(2D\	(8f#/ 8dd/L	p
.	8e/) 8cc#/	.
.	(8e/ 8cc#/	.
.	8d/) 8b/J	.
2E\)	(8d/ 8b/L	.
.	8c#/) 8a/	.
.	(8c#/ 8a/	.
.	8B/) 8g#/J	.
=39	=39	=39
4A\	(2B/ 2d/ (2g#/	.
4E\	.	.
4AA/	4c#/) 4a/)	.
4r	4r	.
=40:|!	=40:|!	=40:|!
*>B	*>B	*>B
1r	(8aa\L	p
.	8ggn\)	.
.	(8gg\	.
.	8ff#\J)	.
.	(8ff#\L	.
.	8ee\)	.
.	(8ee\	.
.	8dd#\J)	.
=41	=41	=41
*	*^	*
1BB 1B	(1dd#	8cc#\L	.
.	.	(8b\)	.
.	.	8b\	.
.	.	(8a\J)	.
.	.	8a\L	.
.	.	(8g\)	.
.	.	8g\	.
.	.	8f#\J)	.
*clefG2	*	*	*
*	*v	*v	*
=42	=42	=42
4r	(8dd#\L	.
.	8ee\J)	.
4g/ 4b/	8r	.
.	8gg\	.
4r	(8ee#\L	.
.	8ff#\J)	.
4d#/ 4b/	8r	.
.	8aa\	.
*clefF4	*	*
=43	=43	=43
(8BB/L	2dd#\ (2ff#\	f
8AA/)	.	.
(8AA/	.	.
(8GGn/J)	.	.
8GG/L	4een\ 4gg\)	.
8FF#/)	.	.
(8FF#/	4r	.
8EE/J)	.	.
=44	=44	=44
1r	(8gg\L	.
.	8ff#\)	.
.	(8ff#\	.
.	8ee\J)	.
.	(8ee\L	.
.	8ddn\)	.
.	(8dd\	.
.	8cc#\J)	.
=45	=45	=45
*	*^	*
1AA 1A	(1cc#	8b-\L	.
.	.	(8a\)	.
.	.	8a\	.
.	.	(8g\J)	.
.	.	8g\L	.
.	.	(8f#\)	.
.	.	8f#\	.
.	.	8e\J)	.
*clefG2	*	*	*
*	*v	*v	*
=46	=46	=46
4r	(8cc#\L	.
.	8dd\J)	.
4f#/ 4a/	8r	.
.	8ff#\	.
4r	(8dd#\L	.
.	8ee\J)	.
4c#/ 4a/	8r	.
.	8gg\	.
*clefF4	*	*
=47	=47	=47
(8AA/L	2cc#\ (2ee\	f
(8GG/)	.	.
8GG/	.	.
8FF#/J)	.	.
(8FF#/L	4ddn\ 4ff#\)	.
8EE/)	.	.
(8EE/	4r	.
8DD/J)	.	.
=48	=48	=48
(8d\L	16ff#\LL	.
.	16ddd\	.
8c#\)	16ff#\	.
.	16ddd\JJ	.
(8c#\	16ff#\LL	.
.	16ddd\	.
8B\J)	16ff#\	.
.	16ddd\JJ	.
(8B\L	16ff#\LL	.
.	16ddd\	.
8A\)	16ff#\	.
.	16ddd\JJ	.
(8A\	16ff#\LL	.
.	16ddd\	.
8G#\J)	16ff#\	.
.	16ddd\JJ	.
=49	=49	=49
2GG#/ 2G#/	16ee\LL	.
.	16ddd\	.
.	16ee\	.
.	16ddd\JJ	.
.	16ee\LL	.
.	16ddd\	.
.	16ee\	.
.	16ddd\JJ	.
2AA#\ 2A#\	16ee\LL	.
.	16ccc#\	.
.	16ee\	.
.	16ccc#\JJ	.
.	16ee\LL	.
.	16ccc#\	.
.	16ee\	.
.	16ccc#\JJ	.
=50	=50	=50
(8B\L	16dd\LL	.
.	16ccc#\	.
8An\)	16dd\	.
.	16ccc#\JJ	.
(8A\	16dd\LL	.
.	16ccc#\	.
8Gn\J)	16dd\	.
.	16ccc#\JJ	.
(8G\L	16dd\LL	.
.	16bb\	.
8F#\)	16dd\	.
.	16bb\JJ	.
(8F#\	16dd\LL	.
.	16bb\	.
8E#\J)	16dd\	.
.	16bb\JJ	.
=51	=51	=51
2EE#/ 2E#/	16cc#\LL	.
.	16bb\	.
.	16cc#\	.
.	16bb\JJ	.
.	16cc#\LL	.
.	16bb\	.
.	16cc#\	.
.	16bb\JJ	.
2FF#/ 2F#/	16ccn\LL	.
.	16aa\	.
.	16cc\	.
.	16aa\JJ	.
.	16cc\LL	.
.	16aa\	.
.	16cc\	.
.	16aa\JJ	.
=52	=52	=52
*	*^	*
(16G\LL	(8aa/L	4b\	.
16d\	.	.	.
16B\	8gg/)	.	.
16d\JJ	.	.	.
16G\LL	(8gg/	4r	.
16d\	.	.	.
16B\	8ff#/J)	.	.
16d\JJ	.	.	.
16G\LL	(8ddd/L	4ee#\	.
16d\	.	.	.
16B\	8ccc#/)	.	.
16d\JJ	.	.	.
16G\LL	(8ccc#/	4r	.
16d\	.	.	.
16B\	8bb/J)	.	.
16d\JJ	.	.	.
=53	=53	=53	=53
16F#\LL	(2aa#/	8gg\L	.
16c#\	.	.	.
16A#\	.	8ff#\)	.
16c#\JJ	.	.	.
16F#\LL	.	(8ff#\	.
16c#\	.	.	.
16A#\	.	8een\J)	.
16c#\JJ	.	.	.
16E#\LL	2bb/	(8dd\L	.
16d\	.	.	.
16G#\	.	8cc#\)	.
16d\JJ	.	.	.
16E#\LL	.	(8cc#\	.
16d\	.	.	.
16G#\	.	8b\J)	.
16d\JJ)	.	.	.
*	*v	*v	*
=54	=54	=54
2F#\	(8gn/ 8ee/L	p
.	8f#/) 8dd/	.
.	(8f#/ 8dd/	.
.	8e/) 8cc#/J	.
2FF#/	(8e/ 8cc#/L	.
.	8d/) 8b/	.
.	(8d/ 8b/	.
.	8c#/) 8a#/J	.
=55	=55	=55
4BB/	(2c#/ 2e/ (2a#/	.
4FF#/	.	.
4BBB/	4d/) 4b/)	.
4r	4r	.
=56	=56	=56
2BB\ 2B\	2d/ 2f#/ 2b/	f
4AAn\ 4An\	4d/ 4f#/ 4ccn/	.
4r	4r	.
=57	=57	=57
*	*^	*
2GG/ 2G/	(4.dd/	2b\	p
.	8dd#/	.	.
4FF#/ 4F#/	4ee/)	4ccn\	.
4r	4r	4r	.
*clefG2	*	*	*
*	*v	*v	*
=58	=58	=58
4r	4r	.
16B/LL	(4ddn\	f
16g/	.	.
16B/	.	.
16g/JJ	.	.
16A/LL	4ccn\	.
16g/	.	.
16A/	.	.
16g/JJ	.	.
16G/LL	4b\)	.
16g/	.	.
16G/	.	.
16g/JJ	.	.
=59	=59	=59
16cn/LL	(8.ee\L	.
16g/	.	.
16f#/	.	.
16g/JJ	48ff#\LL	.
.	48ee\	.
.	48dd\JJJ	.
16c/LL	8ee\L)	.
16g/	.	.
16f#/	8ff#\J	.
16g/JJ	.	.
16c/LL	(8aa\L	.
16g/	.	.
16f#/	8gg\)	.
16g/JJ	.	.
16c/LL	(8ff#\	.
16g/	.	.
16f#/	8ee\J)	.
16g/JJ	.	.
=60	=60	=60
16B/LL	8dd\	.
16g/	.	.
16f#/	8r	.
16g/JJ	.	.
16B/LL	(4dd\	p
16g/	.	.
16B/	.	.
16g/JJ	.	.
16A/LL	4ccn\	.
16g/	.	.
16A/	.	.
16g/JJ	.	.
16G/LL	4b\)	.
16g/	.	.
16G/	.	.
16g/JJ	.	.
*clefF4	*	*
=61	=61	=61
16Cn\LL	(8.a\L	.
16A\	.	.
16E\	.	.
16A\JJ	16ee\Jk	.
16C\LL	16dd\LL	.
16A\	16ccn\	.
16E\	16b\	.
16A\JJ	(16a\JJ)	.
16D\LL	4g/	.
16B\	.	.
16G\	.	.
16B\JJ	.	.
16D\LL	4a/	.
16cn\	.	.
16F#\	.	.
16c\JJ	.	.
=62	=62	=62
.	16gQ/LL	.
.	16aQ/JJ	.
16G\LL	8g/)	.
16d\	.	.
16B\	8r	.
16d\JJ	.	.
*clefG2	*	*
16B/LL	(4dd\	f
16g/	.	.
16B/	.	.
16g/JJ	.	.
16A/LL	4ccn\	.
16g/	.	.
16A/	.	.
16g/JJ	.	.
16G/LL	4b\)	.
16g/	.	.
16G/	.	.
16g/JJ	.	.
=63	=63	=63
16cn/LL	(8.ee\L	.
16g/	.	.
16f#/	.	.
16g/JJ	48ff#\LL	.
.	48ee\	.
.	48dd\JJJ	.
16c/LL	8ee\L)	.
16g/	.	.
16f#/	8ff#\J	.
16g/JJ	.	.
16c/LL	(8aa\L	.
16g/	.	.
16f#/	8gg\)	.
16g/JJ	.	.
16c/LL	(8ff#\	.
16g/	.	.
16f#/	8ee\J)	.
16g/JJ	.	.
=64	=64	=64
16B/LL	8dd\	.
16g/	.	.
16f#/	8r	.
16g/JJ	.	.
16B/LL	(4dd\	p
16g/	.	.
16B/	.	.
16g/JJ	.	.
16B/LL	4ccn\	.
16g/	.	.
16A/	.	.
16g/JJ	.	.
16G/LL	4b\)	.
16g/	.	.
16G/	.	.
16g/JJ	.	.
*clefF4	*	*
=65	=65	=65
16Cn\LL	(8.a\L	.
16A\	.	.
16E\	.	.
16A\JJ	16ee\Jk	.
16C\LL	16dd\LL	.
16A\	16ccn\	.
16E\	16b\	.
16A\JJ	16a\JJ)	.
16D\LL	(4g/	.
16B\	.	.
16G\	.	.
16B\JJ	.	.
16D\LL	4a/	.
16cn\	.	.
16F#\	.	.
16c\JJ	.	.
=66	=66	=66
.	16gQ/LL	.
.	16aQ/JJ)	.
4G\ 4B\	16g/LL	f
.	16a/	.
.	16g/	.
.	16f#/JJ	.
8r	16g/LL	.
.	16b/	.
8F#\ 8d\	16a/	.
.	16ccn/JJ	.
4G\ 4d\	16b/LL	.
.	16a/	.
.	16g/	.
.	16f#/JJ	.
8r	16g/LL	.
.	16b/	.
8F#\ 8d\	16a/	.
.	16cc/JJ	.
=67	=67	=67
4G\ 4d\	16b/LL	.
.	16a/	.
.	16g/	.
.	16f#/JJ	.
8r	16g/LL	.
.	16b/	.
8F#\ 8d\	16a/	.
.	16ccn/JJ	.
8G\ 8d\L	16b\LL	.
.	16dd\	.
8F#\ 8d\	16cc\	.
.	16a\JJ	.
8G\ 8d\	16b\LL	.
.	16dd\	.
8E\ 8G\J	16cc#\	.
.	16ee\JJ	.
=68	=68	=68
4F#\ 4A\	16dd\LL	.
.	16ee\	.
.	16dd\	.
.	16cc#\JJ	.
8r	16dd\LL	.
.	16ff#\	.
8C#\ 8A\	16ee\	.
.	16gg\JJ	.
4D\ 4A\	16ff#\LL	.
.	16ee\	.
.	16dd\	.
.	16cc#\JJ	.
8r	16dd\LL	.
.	16ff#\	.
8C#\ 8A\	16ee\	.
.	16gg\JJ	.
=69	=69	=69
4D\ 4A\	16ff#\LL	.
.	16ee\	.
.	16dd\	.
.	16cc#\JJ	.
8r	16dd\LL	.
.	16ee\	.
8D#\ 8B\	16ff#\	.
.	16aa\JJ	.
4E\ 4B\	16gg\LL	.
.	16ff#\	.
.	16ee\	.
.	16dd#\JJ	.
8r	16ee\LL	.
.	16ff#\	.
8D#\ 8B\	16gg\	.
.	16aa\JJ	.
=70	=70	=70
4E\ 4B\	16gg\LL	.
.	16ff#\	.
.	16ee\	.
.	16dd#\JJ	.
8r	16ee\LL	.
.	16ff#\	.
8E\ 8c#\	16gg\	.
.	16bb\JJ	.
4F#\ 4dn\	16aa\LL	.
.	16gg\	.
.	16ff#\	.
.	16ee\JJ	.
8r	16ff#\LL	.
.	16gg\	.
8E\ 8c#\	16aa\	.
.	16bb\JJ	.
=71	=71	=71
4F#\ 4d\	16aa\LL	.
.	16gg\	.
.	16ff#\	.
.	16ee\JJ	.
*clefG2	*	*
8r	16ff#\LL	.
.	16gg\	.
8f#/	16aa\	.
.	16cccn\JJ	.
8g/L	16bb\LL	.
.	16ddd\	.
8f#/	16aa\	.
.	16ddd\JJ	.
8g/	16bb\LL	.
.	16ddd\	.
8d#/J	16ff#\	.
.	16bb\JJ	.
=72	=72	=72
8e/L	16gg\LL	.
.	16bb\	.
8d#/	16ff#\	.
.	16bb\JJ	.
8e/	16gg\LL	.
.	16bb\	.
8c#/J	16ee\	.
.	16aa\JJ	.
8dn/L	16ff#\LL	.
.	16aa\	.
8c#/	16ee\	.
.	16aa\JJ	.
8d/J	16ff#\LL	.
.	16aa\	.
*clefF4	*	*
8A#\	16cc#\	.
.	16ff#\JJ	.
=73	=73	=73
8B\L	16dd\LL	.
.	16ff#\	.
8A#\	16cc#\	.
.	16ff#\JJ	.
8B\	16dd\LL	.
.	16ff#\	.
8An\ 8cn\J	16dd#\	.
.	16ff#\JJ	.
4G\ 4B\	16ee\LL	.
.	16dd#\	.
.	16ee\	.
.	16ff#\JJ	.
4r	16gg\LL	.
.	16ff#\	.
.	16gg\	.
.	16aa\JJ	.
=74	=74	=74
8G\ 8e\L	16bb\LL	.
.	16ccc#\	.
8G\ 8e\	16dddn\	.
.	16ccc#\JJ	.
8G\ 8e\	16bb\LL	.
.	16aa\	.
8G\ 8e\J	16gg\	.
.	16ff#\JJ	.
8G\ 8e\L	16ee\LL	.
.	16ff#\	.
8G\ 8e\	16gg\	.
.	16ff#\JJ	.
8G#\ 8e\	16ee\LL	.
.	16ddn\	.
8G#\ 8e\J	16cc#\	.
.	16b\JJ	.
=75	=75	=75
8A\L	16cc#\LL	.
.	16dd\	.
8Gn\	16cc#\	.
.	16a\JJ	.
8F#\	8dd\	.
8D\J	8r	.
8C#/L	16gg\LL	.
.	16aa\	.
8AA/	16gg\	.
.	16ee\JJ	.
8D/	16gg\LL	.
.	16ff#\	.
8F#/J	16ee\	.
.	16dd\JJ	.
=76	=76	=76
8A\L	16cc#\LL	.
.	16dd\	.
8G\	16cc#\	.
.	16a\JJ	.
8F#\	8dd\	.
8D\J	8r	.
8C#/L	16gg\LL	.
.	16aa\	.
8AA/	16gg\	.
.	16ee\JJ	.
8D/	16gg\LL	.
.	16ff#\	.
8F#/J	16ee\	.
.	16dd\JJ	.
=77	=77	=77
4AA\ 4E\ 4A\	16cc#\LL	.
.	16ee\	.
.	16cc#\	.
.	16a\JJ	.
4D\ 4F#\ 4A\	16ff#\LL	.
.	16aa\	.
.	16ff#\	.
.	16dd\JJ	.
4AA\ 4E\ 4A\	16cc#\LL	.
.	16ee\	.
.	16cc#\	.
.	16a\JJ	.
4D\ 4F#\ 4A\	16ff#\LL	.
.	16aa\	.
.	16ff#\	.
.	16dd\JJ	.
=78	=78	=78
8r	8cc#\ 8ee\L	.
8AA\ 8C#\ 8E\ 8A\L	8cc#\ 8ee\ 8aa\	.
8AA\ 8C#\ 8E\ 8A\	8cc#\ 8ee\ 8aa\	.
8AA\ 8C#\ 8E\ 8A\J	8cc#\ 8ee\ 8aa\J	.
4AA\ 4C#\ 4E\ 4A\	4cc#\ 4ee\ 4aa\	.
.	32ggQ/	.
4r	(16ff#\LL	p
.	16ee\	.
.	16ff#\	.
.	16gg\JJ)	.
*clefG2	*	*
=79	=79	=79
EQ/	.	.
(8d/L	(8gg#\L	.
8f#/	8aa\J)	.
8e/	8r	.
8g/J	8aa\	.
8f#/L	(8ddd\L	.
8a/	8ccc#\	.
8d/	8bb\	.
8f#/J	8aa\J)	.
=80	=80	=80
8e/L	(8ff#\L	.
8b/	8ggn\J)	.
8g/	8r	.
8e/J	8gg\	.
8c#/L	(8aa\L	.
8e/	8gg\	.
8A/	8ff#\	.
8g/J	8ee\J)	.
=81	=81	=81
8f#/L	(8cc#\L	.
8a/	8dd\J)	.
8c#/	8r	.
8a/J	8ee\	.
8d/L	(8ee#\L	.
8a/	8ff#\J)	.
8B/	8r	.
8d/J	(16aa\LL	.
.	16gg\JJ	.
=82	=82	=82
8A/L	4.ff#\	.
8d/	.	.
8f#/	.	.
8d/J	16gg\LL	.
.	16ff#\JJ	.
8A/) 8c#/	8een\L)	.
8r	8ff#'\	.
4r	8gg'\	.
.	8gg#'\J	.
=83	=83	=83
(8d/L	(8gg#\L	.
8fn/	8aa\J)	.
8e/	8r	.
8g/J	8aa\	.
8f/L	8ddd'\L	.
8a/	8cccn'\	.
8d/	8bb-'\	.
8f/J	8aa'\J	.
=84	=84	=84
8e/L	(8ff#\L	.
8b-/	8ggn\J)	.
8g/	8r	.
8e/J	8gg\	.
8c#/L	8aa'\L	.
8e/	8gg\	.
8A/	8ffn'\	.
8c#/J	8ee'\J	.
=85	=85	=85
*^	*	*
8d/L	2r	(8gg\L	.
8a/	.	8ffn\J)	.
8cn/	.	8r	.
8a/J	.	8ee\	.
8B-/L	2B-\	(8cc#\L	.
8fn/	.	8dd\J)	.
8e/	.	8r	.
8d/J)	.	8gg#\	.
*v	*v	*	*
=86	=86	=86
(8A/L	(2gg#\	.
8d/	.	.
8fn/	.	.
8d/J	.	.
8A/) 8c#/	8aa\)	f
*clefF4	*	*
8GG/ 8G/L	8r	.
8FF#/ 8F#/	4r	.
8EE/ 8E/J	.	.
=87	=87	=87
4DD/ 4D/	16ff#\LL	.
.	16aa\	.
.	16gg#\	.
.	16aa\JJ	.
8r	16bb\LL	.
.	16aa\	.
*clefG2	*	*
8dd'\	16gg#\	.
.	16aa\JJ	.
8ee'\L	16ggn\LL	.
.	16aa\	.
8dd'\	16gg\	.
.	16aa\JJ	.
8cc#'\	16gg\LL	.
.	16aa\	.
8a'\J	16gg\	.
.	16aa\JJ	.
=88	=88	=88
4dd\	16ff#\LL	.
.	16aa\	.
.	16gg#\	.
.	16aa\JJ	.
8r	16bb\LL	.
.	16aa\	.
8d'/	16gg#\	.
.	16aa\JJ	.
8e'/L	16ggn\LL	.
.	16aa\	.
8d'/	16gg\	.
.	16aa\JJ	.
8c#'/	16gg\LL	.
.	16aa\	.
8A'/J	16gg\	.
.	16aa\JJ	.
=89	=89	=89
16d/LL	4ff#\	.
16a/	.	.
16g#/	.	.
16a/JJ	.	.
16b/LL	8r	.
16a/	.	.
16g#/	8ddd'\	.
16a/JJ	.	.
16gn/LL	8eee'\L	.
16a/	.	.
16g/	8ddd'\	.
16a/JJ	.	.
16g/LL	8ccc#'\	.
16a/	.	.
16g/	8aa'\J	.
16a/JJ	.	.
=90	=90	=90
16f#/LL	4ddd\	.
16a/	.	.
16g#/	.	.
16a/JJ	.	.
*	*clefF4	*clefF4
16b/LL	8r	.
16a/	.	.
16g#/	8D'/	.
16a/JJ	.	.
16gn/LL	8E'/L	.
16a/	.	.
16g/	8D'/	.
16a/JJ	.	.
16g/LL	8C#'/	.
16a/	.	.
16g/	8AA'/J	.
16a/JJ	.	.
=91	=91	=91
4f#/	4D\	.
*	*clefG2	*clefG2
16f#/LL	(4aa\	p
16dd/	.	.
16f#/	.	.
16dd/JJ	.	.
16e/LL	4gg\	.
16dd/	.	.
16e/	.	.
16dd/JJ	.	.
16d/LL	4ff#\)	.
16dd/	.	.
16d/	.	.
16dd/JJ	.	.
=92	=92	=92
16g/LL	(8.bb\L	.
16dd/	.	.
16cc#/	.	.
16dd/JJ	48ccc#\LL	.
.	48bb\	.
.	48aa\JJJ	.
16g/LL	8bb\L	.
16dd/	.	.
16cc#/	8ccc#\J)	.
16dd/JJ	.	.
16g/LL	(8eee\L	.
16dd/	.	.
16cc#/	8ddd\)	.
16dd/JJ	.	.
16g/LL	(8ccc#\	.
16dd/	.	.
16cc#/	8bb\J	.
16dd/JJ	.	.
=93	=93	=93
16f#/LL	8aa\)	.
16dd/	.	.
16cc#/	8r	.
16dd/JJ	.	.
16f#/LL	(4aa\	f
16dd/	.	.
16f#/	.	.
16dd/JJ	.	.
16e/LL	4gg\	.
16dd/	.	.
16e/	.	.
16dd/JJ	.	.
16d/LL	4ff#\)	.
16dd/	.	.
16d/	.	.
16dd/JJ	.	.
*clefF4	*	*
=94	=94	=94
16G\LL	(8.ee\L	.
16e\	.	.
16B\	.	.
16e\JJ	16bb\Jk)	.
16G\LL	(16aa\LL	.
16e\	16gg\	.
16B\	16ff#\	.
16e\JJ	16ee\JJ)	.
16A\LL	(4dd\	.
16f#\	.	.
16d\	.	.
16f#\JJ	.	.
16A\LL	4ee\)	.
16g\	.	.
16c#\	.	.
16g\JJ	.	.
=95	=95	=95
16d\LL	8dd\	.
16f#\	.	.
16d\	8r	.
16f#\JJ	.	.
16F#\LL	(4a/	p
16d\	.	.
16F#\	.	.
16d\JJ	.	.
16E\LL	4g/	.
16d\	.	.
16E\	.	.
16d\JJ	.	.
16D\LL	4f#/)	.
16d\	.	.
16D\	.	.
16d\JJ	.	.
=96	=96	=96
16G\LL	(8.b/L	.
16d\	.	.
16c#\	.	.
16d\JJ	48cc#/LL	.
.	48b/	.
.	48a/JJJ	.
16G\LL	8b\L	.
16d\	.	.
16c#\	8cc#\J)	.
16d\JJ	.	.
16G\LL	(8ee\L	.
16d\	.	.
16c#\	8dd\)	.
16d\JJ	.	.
16G\LL	(8cc#\	.
16d\	.	.
16c#\	8b\J	.
16d\JJ	.	.
=97	=97	=97
16F#\LL	8a/)	.
16d\	.	.
16c#\	8r	.
16d\JJ	.	.
16FF#/LL	4a\ (4aa\	f
16D/	.	.
16FF#/	.	.
16D/JJ	.	.
16EE/LL	4g\ 4gg\	.
16D/	.	.
16EE/	.	.
16D/JJ	.	.
16DD/LL	4f#\ 4ff#\)	.
16D/	.	.
16DD/	.	.
16D/JJ	.	.
=98	=98	=98
16GG/LL	8.e\ 8.ee\L	.
16E/	.	.
16BB/	.	.
16E/JJ	16bb\Jk	.
16GG/LL	16aa\LL	.
16E/	16gg\	.
16BB/	16ff#\	.
16E/JJ	16ee\JJ	.
16AA/LL	(4dd\	.
16F#/	.	.
16D/	.	.
16F#/JJ	.	.
16AA/LL	4ee\)	.
16G/	.	.
16C#/	.	.
16G/JJ	.	.
=99	=99	=99
.	16ddQ/LL	.
.	16eeQ/JJ	.
4DD/ 4D/	4f#/ 4a/ 4dd/	.
4r	4r	.
*clefG2	*	*
4d/ 4f#/	(16gg\LL	.
.	16ff#\	.
.	16ee\	.
.	16ff#\JJ	.
4e/ 4g/	16aa\LL	.
.	16gg\	.
.	16ff#\	.
.	16gg\JJ	.
=100	=100	=100
4f#/ 4a/	4aa\)	.
4r	4r	.
2r	8aa'\L	.
.	8bb'\	.
.	8ccc#'\	.
.	8ddd'\J	.
*clefF4	*	*
=101	=101	=101
8F#\L	(4aa\	.
8d\	.	.
8D\	4ff#\)	.
8d\J	.	.
8E\L	(16aa\LL	.
.	16gg\	.
8d\	16ff#\	.
.	16gg\JJ	.
8A\	8aa\L	.
8c#\J	8gg\J)	.
=102	=102	=102
.	(32ee#Q/	.
4D\ 4d\	4ff#\)	.
4r	4r	.
*clefG2	*	*
8d'/ 8f#'/L	(16gg\LL	.
.	16ff#\	.
8d'/ 8f#'/	16een\	.
.	16ff#\JJ	.
8e'/ 8g'/	16aa\LL	.
.	16gg\	.
8e'/ 8g'/J	16ff#\	.
.	16gg\JJ	.
=103	=103	=103
4f#/ 4a/	4aa\)	.
4r	4r	.
2r	8aa'\L	.
.	8bb'\	.
.	8ccc#'\	.
.	8ddd'\J	.
*clefF4	*	*
=104	=104	=104
(8F#\L	(4aa\	.
8d\	.	.
8D\	4ff#\)	.
8d\J	.	.
8E\L	(16aa\LL	.
.	16gg\	.
8d\	16ff#\	.
.	16gg\JJ	.
8A\	16aa\LL	.
.	16gg\	.
8c#\J)	16ff#\	.
.	16ee\JJ	.
=105	=105	=105
16F#\LL	16dd\LL	.
16d\	16ee\	.
16A\	16ff#\	.
16d\JJ	16gg\JJ	.
16F#\LL	16aa\LL	.
16d\	16bb\	.
16A\	16ccc#\	.
16d\JJ	16ddd\JJ)	.
16G\LL	(4ddd\	.
16d\	.	.
16B\	.	.
16d\JJ	.	.
16G\LL	8bb\L)	.
16d\	.	.
16B\	16r	.
16d\JJ	16gg\Jk	.
=106	=106	=106
16A\LL	(4ff#\	.
16f#\	.	.
16d\	.	.
16f#\JJ	.	.
16A\LL	8aa\L)	.
16f#\	.	.
16d\	16r	.
16f#\JJ	16dd\Jk	.
16A\LL	(4ee\	.
16g\	.	.
16e\	.	.
16g\JJ	.	.
16A\LL	8gg\L)	.
16g\	.	.
16e\	16r	.
16g\JJ	16cc#\Jk	.
=107	=107	=107
16F#\LL	(16dd\LL	.
16d\	16ee\	.
16A\	16ff#\	.
16d\JJ	16gg\JJ	.
16F#\LL	16aa\LL	.
16d\	16bb\	.
16A\	16ccc#\	.
16d\JJ	16ddd\JJ	.
16G\LL	16eee\LL	.
16d\	16ddd\	.
16B\	16ccc#\	.
16d\JJ	16ddd\JJ	.
16G\LL	16ccc#\LL	.
16d\	16bb\	.
16B\	16aa\	.
16d\JJ	16gg\JJ	.
=108	=108	=108
16A\LL	16ff#\LL	.
16f#\	16gg\	.
16d\	16gg#\	.
16f#\JJ	16aa\JJ	.
16A\LL	16ggn\LL	.
16f#\	16ff#\	.
16d\	16ee\	.
16f#\JJ	16dd\JJ	.
16A\LL	16dd#\LL	.
16g\	16ee\	.
16e\	16ff#\	.
16g\JJ	16gg\JJ	.
16A\LL	16ff#\LL	.
16g\	16ee\	.
16e\	16ddn\	.
16g\JJ	16cc#\JJ)	.
=109	=109	=109
4d\ 4f#\	(16dd\LL	.
.	16a\	.
.	16dd\	.
.	16ff#\JJ	.
8r	16aa\LL	.
.	16ff#\	.
8A\ 8c#\ 8e\	16gg\	.
.	16ee\JJ	.
4d\ 4f#\	16dd\LL	.
.	16a\	.
.	16dd\	.
.	16ff#\JJ	.
8r	16aa\LL	.
.	16ff#\	.
8A\ 8c#\ 8e\	16gg\	.
.	16ee\JJ	.
=110	=110	=110
4d\ 4f#\	4dd\)	.
4AA#'\ 4A#'\	4ee'\ 4gg'\ 4ccc#'\	.
4BB'\ 4B'\	4dd'\ 4ff#'\ 4ddd'\	.
4r	4r	.
=111	=111	=111
2GG/ 2G/	8b\ (8gg\L	p
.	8a\ 8ff#\	.
.	8a\ (8ff#\)	.
.	8g\ 8ee\J)	.
2AAn\ 2An\	(8g/ 8ee/L	.
.	8f#/) 8dd/	.
.	(8f#/ 8dd/	.
.	8e/) 8cc#/J	.
=112	=112	=112
4D/	(2e/ 2g/ (2cc#/	.
4AA/	.	.
4DD/	4f#/) 4dd/)	.
4r	4r	.
==	==	==
*-	*-	*-
!!!SMS: Alte Mozart-Ausgabe, Band 20, Breitkopf &amp; H&auml;rtel 1877-1883.
!!!ONB: Stich und Druck von Breitkopf &amp; H&auml;rtel in Leipzig
!!!ONB: Ausgegeben 1878
!!!ENC: Craig Stuart Sapp
!!!END: 2009/10/14/
!!!title: @{OTL}, K 311 (284c), @{OMV}
!!!hum2abc: --no-tempo -s 0.65 --spacing 2.0 -p "%gracespace  0 6.0 12.0"
